osgisomg.svg

<?xml version="1.0" encoding="UTF-8" standalone="no"?>
<svg
   xmlns:dc="http://purl.org/dc/elements/1.1/"
   xmlns:cc="http://creativecommons.org/ns#"
   xmlns:rdf="http://www.w3.org/1999/02/22-rdf-syntax-ns#"
   xmlns:svg="http://www.w3.org/2000/svg"
   xmlns="http://www.w3.org/2000/svg"
   xmlns:xlink="http://www.w3.org/1999/xlink"
   xmlns:sodipodi="http://sodipodi.sourceforge.net/DTD/sodipodi-0.dtd"
   xmlns:inkscape="http://www.inkscape.org/namespaces/inkscape"
   version="1.1"
   width="784.51202"
   height="126.864"
   id="svg3899"
   sodipodi:docname="osgisomg.svg"
   inkscape:version="0.92.2 5c3e80d, 2017-08-06">
  <metadata
     id="metadata3903">
    <rdf:RDF>
      <cc:Work
         rdf:about="">
        <dc:format>image/svg+xml</dc:format>
        <dc:type
           rdf:resource="http://purl.org/dc/dcmitype/StillImage" />
      </cc:Work>
    </rdf:RDF>
  </metadata>
  <sodipodi:namedview
     pagecolor="#ffffff"
     bordercolor="#666666"
     borderopacity="1"
     objecttolerance="10"
     gridtolerance="10"
     guidetolerance="10"
     inkscape:pageopacity="0"
     inkscape:pageshadow="2"
     inkscape:window-width="1920"
     inkscape:window-height="1009"
     id="namedview3901"
     showgrid="false"
     inkscape:zoom="1.0076561"
     inkscape:cx="505.42916"
     inkscape:cy="65.376"
     inkscape:window-x="0"
     inkscape:window-y="34"
     inkscape:window-maximized="1"
     inkscape:current-layer="svg3899"
     fit-margin-top="0"
     fit-margin-left="0"
     fit-margin-right="0"
     fit-margin-bottom="0" />
  <defs
     id="defs3847">
    <path
       id="shade-notdef"
       d="m 735,-159 c 14,0 25,4 31,10 l 130,108 c 9,8 14,19 14,37 v 728 c 0,32 -14,46 -46,46 H 136 c -14,0 -25,-3 -32,-9 L -25,652 c -9,-8 -14,-19 -14,-37 v -728 c 0,-32 14,-46 46,-46 z M 711,591 V 20 H 160 v 571 z"
       inkscape:connector-curvature="0" />
    <path
       id="shade-47"
       d="m 490,-119 c 14,0 25,4 31,10 L 651,-1 c 9,8 14,19 14,37 v 309 c 0,32 -14,46 -46,46 H 464 c -14,0 -25,-3 -32,-9 L 303,273 c -3,-3 -6,-6 -8,-9 v 144 h 130 c 14,0 25,4 31,10 l 130,108 c 9,8 14,19 14,37 v 121 c 0,32 -14,46 -46,46 H 304 C 217,730 153,713 111,678 L -18,569 C -60,533 -81,481 -81,407 V 125 c 0,-145 80,-244 256,-244 z"
       inkscape:connector-curvature="0" />
    <path
       id="shade-e114"
       d="m 136,-119 c 14,0 25,4 31,10 L 297,-1 c 9,8 14,19 14,37 v 648 c 0,32 -14,46 -46,46 H 106 c -14,0 -25,-3 -32,-9 L -55,612 c -9,-8 -14,-19 -14,-37 V -73 c 0,-32 14,-46 46,-46 z m 49,866 z M 185,0 Z"
       inkscape:connector-curvature="0" />
    <path
       id="shade-4d"
       d="m 286,-1 c 9,8 14,19 14,37 v 92 h 13 c 19,0 32,5 43,14 l 59,49 V -73 c 0,-32 13,-46 46,-46 h 154 c 14,0 25,4 31,10 L 776,-1 c 9,8 14,19 14,37 v 648 c 0,32 -14,46 -46,46 H 582 c -16,0 -26,-4 -37,-12 L 416,610 c -7,-6 -13,-14 -18,-24 l -9,-16 -68,125 c -15,26 -30,35 -55,35 H 105 c -14,0 -25,-3 -32,-9 L -56,612 c -9,-8 -14,-19 -14,-37 V -73 c 0,-32 14,-46 46,-46 h 149 c 14,0 25,4 31,10 z"
       inkscape:connector-curvature="0" />
    <path
       id="shade-4f"
       d="M 500,-71 629,37 c 45,38 60,90 60,152 V 530 C 689,656 631,745 369,745 235,745 156,722 109,682 L -21,574 C -66,536 -81,483 -81,421 V 110 c 0,-126 59,-244 321,-244 133,0 213,23 260,63 z M 295,225 v 189 c 15,-6 19,-16 19,-29 V 195 c -15,7 -19,17 -19,30 z"
       inkscape:connector-curvature="0" />
    <path
       id="shade-53"
       d="m -42,-119 h 316 c 67,0 121,17 158,48 L 561,37 c 39,32 59,79 59,139 v 105 c 0,108 -55,153 -140,172 l 90,75 c 9,8 14,19 14,37 v 119 c 0,32 -14,46 -46,46 H 258 C 190,730 136,713 100,683 L -30,574 C -68,542 -88,495 -88,435 V 330 C -88,233 -45,187 26,165 L -74,81 C -83,73 -88,62 -88,44 V -73 c 0,-32 14,-46 46,-46 z"
       inkscape:connector-curvature="0" />
    <path
       id="regular-notdef"
       d="m 900,-4 v 728 c 0,25 -11,36 -36,36 H 136 c -25,0 -36,-11 -36,-36 V -4 c 0,-25 11,-36 36,-36 h 728 c 25,0 36,11 36,36 z M 850,10 H 150 v 700 h 700 z"
       inkscape:connector-curvature="0" />
    <path
       id="regular-47"
       d="m 619,0 c 25,0 36,11 36,36 v 309 c 0,25 -11,36 -36,36 H 464 c -25,0 -36,-11 -36,-36 V 189 h -97 c -31,0 -46,15 -46,49 v 239 c 0,34 19,50 61,50 h 208 c 25,0 36,11 36,36 v 121 c 0,25 -11,36 -36,36 H 304 C 136,720 58,655 58,516 V 204 C 58,65 136,0 304,0 Z"
       inkscape:connector-curvature="0" />
    <path
       id="regular-e114"
       d="m 265,0 c 25,0 36,11 36,36 v 648 c 0,25 -11,36 -36,36 H 106 C 81,720 70,709 70,684 V 36 C 70,11 81,0 106,0 Z M 185,747 Z M 185,0 Z"
       inkscape:connector-curvature="0" />
    <path
       id="regular-4d"
       d="m 254,0 c 25,0 36,11 36,36 v 352 l 59,-109 c 12,-23 27,-32 53,-32 h 40 c 26,0 41,9 53,32 l 59,109 V 36 C 554,11 564,0 590,0 h 154 c 25,0 36,11 36,36 v 648 c 0,25 -11,36 -36,36 H 582 c -21,0 -34,-8 -46,-30 L 447,527 c -7,-12 -10,-17 -18,-17 h -9 c -8,0 -11,5 -18,17 l -90,163 c -12,22 -25,30 -46,30 H 105 C 80,720 69,709 69,684 V 36 C 69,11 80,0 105,0 Z"
       inkscape:connector-curvature="0" />
    <path
       id="regular-4f"
       d="M 679,189 V 530 C 679,652 619,735 369,735 119,735 58,652 58,530 V 189 c 0,-122 61,-204 311,-204 250,0 310,82 310,204 z m -394,36 v 269 c 0,26 12,46 84,46 73,0 84,-20 84,-46 V 225 c 0,-27 -11,-47 -84,-47 -72,0 -84,20 -84,47 z"
       inkscape:connector-curvature="0" />
    <path
       id="regular-53"
       d="m 403,0 c 129,0 207,62 207,176 v 105 c 0,112 -62,152 -156,166 l -149,20 c -17,2 -27,14 -27,32 0,18 10,30 27,30 h 233 c 25,0 36,11 36,36 v 119 c 0,25 -11,36 -36,36 H 258 C 128,720 51,658 51,544 V 439 C 51,327 112,287 206,273 l 150,-21 c 17,-2 26,-11 26,-34 0,-16 -9,-29 -26,-29 H 87 C 62,189 51,178 51,153 V 36 C 51,11 62,0 87,0 Z"
       inkscape:connector-curvature="0" />
    <path
       id="inline-notdef"
       d="M 120,-20 H 880 V 740 H 120 Z m 750,10 H 130 v 740 h 740 z"
       inkscape:connector-curvature="0" />
    <path
       id="inline-47"
       d="M 347,90 H 546 V 291 H 536 V 100 H 347 c -135,0 -170,32 -170,119 v 280 c 0,89 32,121 150,121 h 173 v 10 H 327 C 199,630 167,594 167,499 V 219 C 167,126 200,90 347,90 Z"
       inkscape:connector-curvature="0" />
    <path
       id="inline-e114"
       d="M 181,630 V 90 h 10 v 540 z m 4,117 z M 185,0 Z"
       inkscape:connector-curvature="0" />
    <path
       id="inline-4d"
       d="m 421,385 c -24,0 -28,7 -51,42 L 248,613 c -8,13 -19,17 -30,17 h -17 c -18,0 -26,-9 -26,-31 V 90 h 10 v 509 c 0,11 2,21 16,21 h 15 c 9,0 16,-1 24,-14 L 362,422 c 24,-36 30,-47 59,-47 29,0 35,11 59,47 l 122,184 c 8,13 14,14 23,14 h 15 c 14,0 17,-10 17,-21 V 90 h 10 v 509 c 0,22 -8,31 -27,31 h -17 c -11,0 -21,-4 -29,-17 L 472,427 c -23,-35 -27,-42 -51,-42 z"
       inkscape:connector-curvature="0" />
    <path
       id="inline-4f"
       d="M 570,212 V 507 C 570,588 524,642 367,642 210,642 166,588 166,507 V 212 c 0,-81 44,-135 201,-135 157,0 203,54 203,135 z m -394,0 v 295 c 0,75 42,125 191,125 149,0 193,-50 193,-125 V 212 C 560,137 516,87 367,87 218,87 176,137 176,212 Z"
       inkscape:connector-curvature="0" />
    <path
       id="inline-53"
       d="M 484,630 H 262 c -62,0 -102,-38 -102,-91 v -82 c 0,-55 24,-70 59,-77 l 211,-43 c 37,-8 61,-25 61,-88 v -58 c 0,-53 -39,-91 -101,-91 H 141 V 90 h 249 c 68,0 111,42 111,101 v 58 c 0,70 -29,90 -69,98 l -211,43 c -31,6 -51,20 -51,67 v 82 c 0,47 36,81 92,81 h 222 z"
       inkscape:connector-curvature="0" />
  </defs>
  <!-- Text: OSGISOMG (8 bytes) -->
  <!-- O -->
  <use
     transform="matrix(0.144,0,0,-0.144,11.664,107.568)"
     xlink:href="#shade-4f"
     style="fill:#ece4e1;stroke:none"
     id="use3851"
     x="0"
     y="0"
     width="100%"
     height="100%" />
  <!-- S -->
  <use
     transform="matrix(0.144,0,0,-0.144,117.792,107.568)"
     xlink:href="#shade-53"
     style="fill:#ece4e1;stroke:none"
     id="use3853"
     x="0"
     y="0"
     width="100%"
     height="100%" />
  <!-- G -->
  <use
     transform="matrix(0.144,0,0,-0.144,211.392,107.568)"
     xlink:href="#shade-47"
     style="fill:#ece4e1;stroke:none"
     id="use3855"
     x="0"
     y="0"
     width="100%"
     height="100%" />
  <!-- I -->
  <use
     transform="matrix(0.144,0,0,-0.144,313.344,107.568)"
     xlink:href="#shade-e114"
     style="fill:#ece4e1;stroke:none"
     id="use3857"
     x="0"
     y="0"
     width="100%"
     height="100%" />
  <!-- S -->
  <use
     transform="matrix(0.144,0,0,-0.144,366.768,107.568)"
     xlink:href="#shade-53"
     style="fill:#ece4e1;stroke:none"
     id="use3859"
     x="0"
     y="0"
     width="100%"
     height="100%" />
  <!-- O -->
  <use
     transform="matrix(0.144,0,0,-0.144,460.368,107.568)"
     xlink:href="#shade-4f"
     style="fill:#ece4e1;stroke:none"
     id="use3861"
     x="0"
     y="0"
     width="100%"
     height="100%" />
  <!-- M -->
  <use
     transform="matrix(0.144,0,0,-0.144,566.496,107.568)"
     xlink:href="#shade-4d"
     style="fill:#ece4e1;stroke:none"
     id="use3863"
     x="0"
     y="0"
     width="100%"
     height="100%" />
  <!-- G -->
  <use
     transform="matrix(0.144,0,0,-0.144,688.752,107.568)"
     xlink:href="#shade-47"
     style="fill:#ece4e1;stroke:none"
     id="use3865"
     x="0"
     y="0"
     width="100%"
     height="100%" />
  <!-- O -->
  <use
     transform="matrix(0.144,0,0,-0.144,11.664,107.568)"
     xlink:href="#regular-4f"
     style="fill:#d42b26;stroke:none"
     id="use3867"
     x="0"
     y="0"
     width="100%"
     height="100%" />
  <!-- S -->
  <use
     transform="matrix(0.144,0,0,-0.144,117.792,107.568)"
     xlink:href="#regular-53"
     style="fill:#d42b26;stroke:none"
     id="use3869"
     x="0"
     y="0"
     width="100%"
     height="100%" />
  <!-- G -->
  <use
     transform="matrix(0.144,0,0,-0.144,211.392,107.568)"
     xlink:href="#regular-47"
     style="fill:#d42b26;stroke:none"
     id="use3871"
     x="0"
     y="0"
     width="100%"
     height="100%" />
  <!-- I -->
  <use
     transform="matrix(0.144,0,0,-0.144,313.344,107.568)"
     xlink:href="#regular-e114"
     style="fill:#d42b26;stroke:none"
     id="use3873"
     x="0"
     y="0"
     width="100%"
     height="100%" />
  <!-- S -->
  <use
     transform="matrix(0.144,0,0,-0.144,366.768,107.568)"
     xlink:href="#regular-53"
     style="fill:#d42b26;stroke:none"
     id="use3875"
     x="0"
     y="0"
     width="100%"
     height="100%" />
  <!-- O -->
  <use
     transform="matrix(0.144,0,0,-0.144,460.368,107.568)"
     xlink:href="#regular-4f"
     style="fill:#d42b26;stroke:none"
     id="use3877"
     x="0"
     y="0"
     width="100%"
     height="100%" />
  <!-- M -->
  <use
     transform="matrix(0.144,0,0,-0.144,566.496,107.568)"
     xlink:href="#regular-4d"
     style="fill:#d42b26;stroke:none"
     id="use3879"
     x="0"
     y="0"
     width="100%"
     height="100%" />
  <!-- G -->
  <use
     transform="matrix(0.144,0,0,-0.144,688.752,107.568)"
     xlink:href="#regular-47"
     style="fill:#d42b26;stroke:none"
     id="use3881"
     x="0"
     y="0"
     width="100%"
     height="100%" />
  <!-- O -->
  <use
     transform="matrix(0.144,0,0,-0.144,11.664,107.568)"
     xlink:href="#inline-4f"
     style="fill:#ef7575;stroke:none"
     id="use3883"
     x="0"
     y="0"
     width="100%"
     height="100%" />
  <!-- S -->
  <use
     transform="matrix(0.144,0,0,-0.144,117.792,107.568)"
     xlink:href="#inline-53"
     style="fill:#ef7575;stroke:none"
     id="use3885"
     x="0"
     y="0"
     width="100%"
     height="100%" />
  <!-- G -->
  <use
     transform="matrix(0.144,0,0,-0.144,211.392,107.568)"
     xlink:href="#inline-47"
     style="fill:#ef7575;stroke:none"
     id="use3887"
     x="0"
     y="0"
     width="100%"
     height="100%" />
  <!-- I -->
  <use
     transform="matrix(0.144,0,0,-0.144,313.344,107.568)"
     xlink:href="#inline-e114"
     style="fill:#ef7575;stroke:none"
     id="use3889"
     x="0"
     y="0"
     width="100%"
     height="100%" />
  <!-- S -->
  <use
     transform="matrix(0.144,0,0,-0.144,366.768,107.568)"
     xlink:href="#inline-53"
     style="fill:#ef7575;stroke:none"
     id="use3891"
     x="0"
     y="0"
     width="100%"
     height="100%" />
  <!-- O -->
  <use
     transform="matrix(0.144,0,0,-0.144,460.368,107.568)"
     xlink:href="#inline-4f"
     style="fill:#ef7575;stroke:none"
     id="use3893"
     x="0"
     y="0"
     width="100%"
     height="100%" />
  <!-- M -->
  <use
     transform="matrix(0.144,0,0,-0.144,566.496,107.568)"
     xlink:href="#inline-4d"
     style="fill:#ef7575;stroke:none"
     id="use3895"
     x="0"
     y="0"
     width="100%"
     height="100%" />
  <!-- G -->
  <use
     transform="matrix(0.144,0,0,-0.144,688.752,107.568)"
     xlink:href="#inline-47"
     style="fill:#ef7575;stroke:none"
     id="use3897"
     x="0"
     y="0"
     width="100%"
     height="100%" />
</svg>

<?xml version="1.0" encoding="UTF-8" standalone="no"?>
<svg
   xmlns:dc="http://purl.org/dc/elements/1.1/"
   xmlns:cc="http://creativecommons.org/ns#"
   xmlns:rdf="http://www.w3.org/1999/02/22-rdf-syntax-ns#"
   xmlns:svg="http://www.w3.org/2000/svg"
   xmlns="http://www.w3.org/2000/svg"
   xmlns:xlink="http://www.w3.org/1999/xlink"
   xmlns:sodipodi="http://sodipodi.sourceforge.net/DTD/sodipodi-0.dtd"
   xmlns:inkscape="http://www.inkscape.org/namespaces/inkscape"
   version="1.1"
   width="849"
   height="208"
   id="svg3899"
   sodipodi:docname="osgisomg.svg"
   inkscape:version="0.92.2 5c3e80d, 2017-08-06">
  <metadata
     id="metadata3903">
    <rdf:RDF>
      <cc:Work
         rdf:about="">
        <dc:format>image/svg+xml</dc:format>
        <dc:type
           rdf:resource="http://purl.org/dc/dcmitype/StillImage" />
      </cc:Work>
    </rdf:RDF>
  </metadata>
  <sodipodi:namedview
     pagecolor="#ffffff"
     bordercolor="#666666"
     borderopacity="1"
     objecttolerance="10"
     gridtolerance="10"
     guidetolerance="10"
     inkscape:pageopacity="0"
     inkscape:pageshadow="2"
     inkscape:window-width="1920"
     inkscape:window-height="1009"
     id="namedview3901"
     showgrid="false"
     inkscape:zoom="2.0153121"
     inkscape:cx="424.5"
     inkscape:cy="104"
     inkscape:window-x="0"
     inkscape:window-y="34"
     inkscape:window-maximized="1"
     inkscape:current-layer="svg3899" />
  <defs
     id="defs3847">
    <path
       id="shade-notdef"
       d="M735 -159C749 -159 760 -155 766 -149L896 -41C905 -33 910 -22 910 -4V724C910 756 896 770 864 770H136C122 770 111 767 104 761L-25 652C-34 644 -39 633 -39 615V-113C-39 -145 -25 -159 7 -159ZM711 591V20H160V591Z" />
    <path
       id="shade-47"
       d="M490 -119C504 -119 515 -115 521 -109L651 -1C660 7 665 18 665 36V345C665 377 651 391 619 391H464C450 391 439 388 432 382L303 273C300 270 297 267 295 264V408H425C439 408 450 412 456 418L586 526C595 534 600 545 600 563V684C600 716 586 730 554 730H304C217 730 153 713 111 678L-18 569C-60 533 -81 481 -81 407V125C-81 -20 -1 -119 175 -119Z" />
    <path
       id="shade-e114"
       d="M136 -119C150 -119 161 -115 167 -109L297 -1C306 7 311 18 311 36V684C311 716 297 730 265 730H106C92 730 81 727 74 721L-55 612C-64 604 -69 593 -69 575V-73C-69 -105 -55 -119 -23 -119ZM185 747ZM185 0Z" />
    <path
       id="shade-4d"
       d="M286 -1C295 7 300 18 300 36V128H313C332 128 345 133 356 142L415 191V-73C415 -105 428 -119 461 -119H615C629 -119 640 -115 646 -109L776 -1C785 7 790 18 790 36V684C790 716 776 730 744 730H582C566 730 556 726 545 718L416 610C409 604 403 596 398 586L389 570L321 695C306 721 291 730 266 730H105C91 730 80 727 73 721L-56 612C-65 604 -70 593 -70 575V-73C-70 -105 -56 -119 -24 -119H125C139 -119 150 -115 156 -109Z" />
    <path
       id="shade-4f"
       d="M500 -71 629 37C674 75 689 127 689 189V530C689 656 631 745 369 745C235 745 156 722 109 682L-21 574C-66 536 -81 483 -81 421V110C-81 -16 -22 -134 240 -134C373 -134 453 -111 500 -71ZM295 225V414C310 408 314 398 314 385V195C299 202 295 212 295 225Z" />
    <path
       id="shade-53"
       d="M-42 -119H274C341 -119 395 -102 432 -71L561 37C600 69 620 116 620 176V281C620 389 565 434 480 453L570 528C579 536 584 547 584 565V684C584 716 570 730 538 730H258C190 730 136 713 100 683L-30 574C-68 542 -88 495 -88 435V330C-88 233 -45 187 26 165L-74 81C-83 73 -88 62 -88 44V-73C-88 -105 -74 -119 -42 -119Z" />
    <path
       id="regular-notdef"
       d="M900 -4V724C900 749 889 760 864 760H136C111 760 100 749 100 724V-4C100 -29 111 -40 136 -40H864C889 -40 900 -29 900 -4ZM850 10H150V710H850Z" />
    <path
       id="regular-47"
       d="M619 0C644 0 655 11 655 36V345C655 370 644 381 619 381H464C439 381 428 370 428 345V189H331C300 189 285 204 285 238V477C285 511 304 527 346 527H554C579 527 590 538 590 563V684C590 709 579 720 554 720H304C136 720 58 655 58 516V204C58 65 136 0 304 0Z" />
    <path
       id="regular-e114"
       d="M265 0C290 0 301 11 301 36V684C301 709 290 720 265 720H106C81 720 70 709 70 684V36C70 11 81 0 106 0ZM185 747ZM185 0Z" />
    <path
       id="regular-4d"
       d="M254 0C279 0 290 11 290 36V388L349 279C361 256 376 247 402 247H442C468 247 483 256 495 279L554 388V36C554 11 564 0 590 0H744C769 0 780 11 780 36V684C780 709 769 720 744 720H582C561 720 548 712 536 690L447 527C440 515 437 510 429 510H420C412 510 409 515 402 527L312 690C300 712 287 720 266 720H105C80 720 69 709 69 684V36C69 11 80 0 105 0Z" />
    <path
       id="regular-4f"
       d="M679 189V530C679 652 619 735 369 735C119 735 58 652 58 530V189C58 67 119 -15 369 -15C619 -15 679 67 679 189ZM285 225V494C285 520 297 540 369 540C442 540 453 520 453 494V225C453 198 442 178 369 178C297 178 285 198 285 225Z" />
    <path
       id="regular-53"
       d="M403 0C532 0 610 62 610 176V281C610 393 548 433 454 447L305 467C288 469 278 481 278 499C278 517 288 529 305 529H538C563 529 574 540 574 565V684C574 709 563 720 538 720H258C128 720 51 658 51 544V439C51 327 112 287 206 273L356 252C373 250 382 241 382 218C382 202 373 189 356 189H87C62 189 51 178 51 153V36C51 11 62 0 87 0Z" />
    <path
       id="inline-notdef"
       d="M120 -20H880V740H120ZM870 -10H130V730H870Z" />
    <path
       id="inline-47"
       d="M347 90H546V291H536V100H347C212 100 177 132 177 219V499C177 588 209 620 327 620H500V630H327C199 630 167 594 167 499V219C167 126 200 90 347 90Z" />
    <path
       id="inline-e114"
       d="M181 630V90H191V630ZM185 747ZM185 0Z" />
    <path
       id="inline-4d"
       d="M421 385C397 385 393 392 370 427L248 613C240 626 229 630 218 630H201C183 630 175 621 175 599V90H185V599C185 610 187 620 201 620H216C225 620 232 619 240 606L362 422C386 386 392 375 421 375C450 375 456 386 480 422L602 606C610 619 616 620 625 620H640C654 620 657 610 657 599V90H667V599C667 621 659 630 640 630H623C612 630 602 626 594 613L472 427C449 392 445 385 421 385Z" />
    <path
       id="inline-4f"
       d="M570 212V507C570 588 524 642 367 642C210 642 166 588 166 507V212C166 131 210 77 367 77C524 77 570 131 570 212ZM176 212V507C176 582 218 632 367 632C516 632 560 582 560 507V212C560 137 516 87 367 87C218 87 176 137 176 212Z" />
    <path
       id="inline-53"
       d="M484 630H262C200 630 160 592 160 539V457C160 402 184 387 219 380L430 337C467 329 491 312 491 249V191C491 138 452 100 390 100H141V90H390C458 90 501 132 501 191V249C501 319 472 339 432 347L221 390C190 396 170 410 170 457V539C170 586 206 620 262 620H484Z" />
  </defs>
  <!-- Text: OSGISOMG (8 bytes) -->
  <!-- O -->
  <use
     transform="translate(37.76 150.08) scale(0.144 -0.144)"
     xlink:href="#shade-4f"
     style="stroke:none;fill:#ece4e1"
     id="use3851" />
  <!-- S -->
  <use
     transform="translate(143.888 150.08) scale(0.144 -0.144)"
     xlink:href="#shade-53"
     style="stroke:none;fill:#ece4e1"
     id="use3853" />
  <!-- G -->
  <use
     transform="translate(237.488 150.08) scale(0.144 -0.144)"
     xlink:href="#shade-47"
     style="stroke:none;fill:#ece4e1"
     id="use3855" />
  <!-- I -->
  <use
     transform="translate(339.44 150.08) scale(0.144 -0.144)"
     xlink:href="#shade-e114"
     style="stroke:none;fill:#ece4e1"
     id="use3857" />
  <!-- S -->
  <use
     transform="translate(392.864 150.08) scale(0.144 -0.144)"
     xlink:href="#shade-53"
     style="stroke:none;fill:#ece4e1"
     id="use3859" />
  <!-- O -->
  <use
     transform="translate(486.464 150.08) scale(0.144 -0.144)"
     xlink:href="#shade-4f"
     style="stroke:none;fill:#ece4e1"
     id="use3861" />
  <!-- M -->
  <use
     transform="translate(592.592 150.08) scale(0.144 -0.144)"
     xlink:href="#shade-4d"
     style="stroke:none;fill:#ece4e1"
     id="use3863" />
  <!-- G -->
  <use
     transform="translate(714.848 150.08) scale(0.144 -0.144)"
     xlink:href="#shade-47"
     style="stroke:none;fill:#ece4e1"
     id="use3865" />
  <!-- O -->
  <use
     transform="translate(37.76 150.08) scale(0.144 -0.144)"
     xlink:href="#regular-4f"
     style="stroke:none;fill:#d42b26"
     id="use3867" />
  <!-- S -->
  <use
     transform="translate(143.888 150.08) scale(0.144 -0.144)"
     xlink:href="#regular-53"
     style="stroke:none;fill:#d42b26"
     id="use3869" />
  <!-- G -->
  <use
     transform="translate(237.488 150.08) scale(0.144 -0.144)"
     xlink:href="#regular-47"
     style="stroke:none;fill:#d42b26"
     id="use3871" />
  <!-- I -->
  <use
     transform="translate(339.44 150.08) scale(0.144 -0.144)"
     xlink:href="#regular-e114"
     style="stroke:none;fill:#d42b26"
     id="use3873" />
  <!-- S -->
  <use
     transform="translate(392.864 150.08) scale(0.144 -0.144)"
     xlink:href="#regular-53"
     style="stroke:none;fill:#d42b26"
     id="use3875" />
  <!-- O -->
  <use
     transform="translate(486.464 150.08) scale(0.144 -0.144)"
     xlink:href="#regular-4f"
     style="stroke:none;fill:#d42b26"
     id="use3877" />
  <!-- M -->
  <use
     transform="translate(592.592 150.08) scale(0.144 -0.144)"
     xlink:href="#regular-4d"
     style="stroke:none;fill:#d42b26"
     id="use3879" />
  <!-- G -->
  <use
     transform="translate(714.848 150.08) scale(0.144 -0.144)"
     xlink:href="#regular-47"
     style="stroke:none;fill:#d42b26"
     id="use3881" />
  <!-- O -->
  <use
     transform="translate(37.76 150.08) scale(0.144 -0.144)"
     xlink:href="#inline-4f"
     style="stroke:none;fill:#ef7575"
     id="use3883" />
  <!-- S -->
  <use
     transform="translate(143.888 150.08) scale(0.144 -0.144)"
     xlink:href="#inline-53"
     style="stroke:none;fill:#ef7575"
     id="use3885" />
  <!-- G -->
  <use
     transform="translate(237.488 150.08) scale(0.144 -0.144)"
     xlink:href="#inline-47"
     style="stroke:none;fill:#ef7575"
     id="use3887" />
  <!-- I -->
  <use
     transform="translate(339.44 150.08) scale(0.144 -0.144)"
     xlink:href="#inline-e114"
     style="stroke:none;fill:#ef7575"
     id="use3889" />
  <!-- S -->
  <use
     transform="translate(392.864 150.08) scale(0.144 -0.144)"
     xlink:href="#inline-53"
     style="stroke:none;fill:#ef7575"
     id="use3891" />
  <!-- O -->
  <use
     transform="translate(486.464 150.08) scale(0.144 -0.144)"
     xlink:href="#inline-4f"
     style="stroke:none;fill:#ef7575"
     id="use3893" />
  <!-- M -->
  <use
     transform="translate(592.592 150.08) scale(0.144 -0.144)"
     xlink:href="#inline-4d"
     style="stroke:none;fill:#ef7575"
     id="use3895" />
  <!-- G -->
  <use
     transform="translate(714.848 150.08) scale(0.144 -0.144)"
     xlink:href="#inline-47"
     style="stroke:none;fill:#ef7575"
     id="use3897" />
</svg>
